public/assets/x-logo.svg

<svg xmlns="http://www.w3.org/2000/svg"  viewBox="0 0 50 50" width="40px" height="40px"><path d="M 11 4 C 7.134 4 4 7.134 4 11 L 4 39 C 4 42.866 7.134 46 11 46 L 39 46 C 42.866 46 46 42.866 46 39 L 46 11 C 46 7.134 42.866 4 39 4 L 11 4 z M 13.085938 13 L 21.023438 13 L 26.660156 21.009766 L 33.5 13 L 36 13 L 27.789062 22.613281 L 37.914062 37 L 29.978516 37 L 23.4375 27.707031 L 15.5 37 L 13 37 L 22.308594 26.103516 L 13.085938 13 z M 16.914062 15 L 31.021484 35 L 34.085938 35 L 19.978516 15 L 16.914062 15 z"/></svg>

<?xml version="1.0" encoding="iso-8859-1"?>
<!-- Generator: Adobe Illustrator 24.1.2, SVG Export Plug-In . SVG Version: 6.00 Build 0)  -->
<svg version="1.1" baseProfile="basic" id="Layer_1"
	 xmlns="http://www.w3.org/2000/svg" xmlns:xlink="http://www.w3.org/1999/xlink" x="0px" y="0px" viewBox="0 0 50 50"
	 xml:space="preserve">
<g>
	<path d="M39,4H11c-3.866,0-7,3.134-7,7v28c0,3.866,3.134,7,7,7h28c3.866,0,7-3.134,7-7V11C46,7.134,42.866,4,39,4z M29.978,37
		l-6.54-9.292L15.5,37H13l9.308-10.897L13.086,13h7.937l5.637,8.009L33.5,13H36l-8.211,9.613L37.914,37H29.978z"/>
	<polygon points="16.914,15 31.022,35 34.086,35 19.978,15 	"/>
</g>
</svg>
